X: 37434
T: Sliabh Luachra, The
R: polka
M: 2/4
K: Dmajor
|:B/c/|dA BA|dA BA|B>A B/c/d|e2- ef/e/|
df Bd|Ad FD|E>D EF|D2- D:|
|:E|FA AB|Ad dc/B/|AF D>E|FE ED/E/|
FA A>B|Ad dc/B/|AF EF|D2- D:|

